X:1
T:Never Alone
T:Never Alone
T:George Blackburn Holsinger
T:Addison Bartholomew Bowser, 1898
T:Public Domain Courtesy of the Cyber Hymnal™
T:Public Domain Courtesy of the Cyber Hymnal™
C:George Blackburn Holsinger
Z:Public Domain
Z:Courtesy of the Cyber Hymnal™
%%score ( 1 2 ) 3
L:1/8
Q:1/4=100
M:9/8
K:D
V:1 treble 
V:2 treble 
V:3 bass 
V:1
 [FA][^E^G][=GB] | [FA]3 [Ad]3 [Ge][Fd][Gc] | [Fd]6 [Bd][Ac][GB] | [FA]3 [Fd]3 [DA][CG][DF] | %4
w: 1.~Ne- ver a-|lone, no, ne- ver a-|lone, Je- sus is|with me, Je- sus my|
w: 2.~Ne- ver a-|lone, when dan- ger is|near, Walk- ing with|Je- sus, why should I|
w: 3.~Ne- ver a-|lone, when temp- ted and|tried, Safe- ly He|keeps me close to His|
w: 4.~Ne- ver a-|lone, when death sha- dows|come, O’er wea- ry|eye- lids clos- ing in|
 [CE]6 [FA][^E^G][=GB] | [FA]3 [Ad]3 [^GB][Gc][Gd] | [Ac]6 [Gc][GB][GA] | [Fd]3 A3 [Gc][Fd][Ge] | %8
w: own; Cheered by His|pre- sence, led by His|hand, Joy- ous I|march thro’ this de- sert|
w: fear? Trust- ing in|Him when pressed by the|foe, I find a|ref- uge from all my|
w: side; Lean- ing on|Je- sus, Sav- ior di-|vine, Claim- ing His|prom- ise, vic- tory is|
w: sleep; Sweet- ly with|Je- sus, when night is|o’er, I shall a-|wake on yon- der bright|
 [Fd]6 ||"^Refrain" [FA][GB][Ec] | [Fd]3 [Fd]3 [Ge][Fd][Ec] | [Fd]6 [DF][EG][FA] | %12
w: land.||||
w: woe.|Ne- ver a-|lone, no, ne- ver a-|lone, Je- sus is|
w: mine.||||
w: shore.||||
 [GB]3 [GB]3 [^GB][Gc][Gd] | c6 [Gc][GB][GA] | [Fd]3 [FA]3 [FA][EG][DF] | [GB]6 [GB][Ac][Bd] | %16
w: ||||
w: with me, Je- sus my|own, O what a|com- fort dai- ly I|know, Je- sus is|
w: ||||
w: ||||
 [Ac]3 [GA]3 [Gc][Fd][Ge] | [Fd]6 |] %18
w: ||
w: with me wher- e’er I|go.|
w: ||
w: ||
V:2
 x3 | x9 | x9 | x9 | x9 | x9 | x9 | x3 A3 x3 | x6 || x3 | x9 | x9 | x9 | (A3 G3) x3 | x9 | x9 | %16
 x9 | x6 |] %18
V:3
 [D,D][D,D][D,D] | [D,D]3 [F,D]3 [A,C][A,D][A,E] | [D,D]6 [G,D][G,D][G,D] | %3
w: ~ ~ ~|~ ~ ~ ~ ~|~ ~ ~ ~|
 [D,D]3 [D,D]3 [F,D][E,A,][D,A,] | [A,,A,]6 [D,A,][D,B,][D,D] | [D,D]3 [F,D]3 [E,E][E,E][E,E] | %6
w: ~ ~ ~ ~ ~|~ ~ ~ ~|~ ~ ~ ~ ~|
 [A,E]6 [A,E][A,D][A,C] | [D,D]3 [F,D]3 [A,E][A,D][A,C] | [D,D]6 || z3 | %10
w: ~ ~ ~ ~|~ ~ ~ ~ ~|~||
 [D,A,][D,A,][D,A,] [D,A,]3 z2 [A,,A,] | [D,A,][D,A,][D,A,] [D,A,]3 z3 | %12
w: Ne- ver a- lone, no,|ne- ver a- lone,|
 [G,D][G,D][G,D] [G,D]2 [G,D] [E,E][E,E][E,E] | [A,E][A,E][A,E] [A,E]3 z3 | %14
w: Je- sus is with me, Je- sus, yes,|Je- sus my own,|
 [D,A,][D,A,][D,A,] [D,D]2 [D,D] z3 | [G,D][G,D][G,D] [G,D]3 z3 | %16
w: Oh, what a com- fort|dai- ly I know,|
 [A,E][A,E][A,E] [A,C]2 [A,C] [A,,E][A,,D][A,,A,] | [D,A,]6 |] %18
w: Je- sus is with me wher- e’er I|go.|

